Educa/src/img/icons/icon-code.svg

<svg width="5" height="6" viewBox="0 0 5 6" fill="none" xmlns="http://www.w3.org/2000/svg">
<path d="M2.36136 0L0 1.36364V4.09088L2.36136 5.45456L4.72276 4.09088V1.36364L2.36136 0ZM1.44953 3.15716L1.2234 3.38334L0.567378 2.72728L1.2234 2.07126L1.44953 2.2974L1.01965 2.72728L1.44953 3.15716ZM2.12802 3.55159L1.84196 3.40856L2.59473 1.90297L2.8808 2.046L2.12802 3.55159ZM3.49936 3.3833L3.27318 3.15716L3.70311 2.72728L3.27318 2.2974L3.49936 2.07122L4.15538 2.72728L3.49936 3.3833Z" fill="#FF5700"/>
</svg>

<svg xmlns="http://www.w3.org/2000/svg" width="5" height="6" fill="none" xmlns:v="https://vecta.io/nano"><path d="M2.361 0L0 1.364v2.727l2.361 1.364 2.361-1.364V1.364L2.361 0zM1.45 3.157l-.226.226-.656-.656.656-.656.226.226-.43.43.43.43zm.678.394l-.286-.143.753-1.506.286.143-.753 1.506zm1.371-.168l-.226-.226.43-.43-.43-.43.226-.226.656.656-.656.656z" fill="#ff5700"/></svg>
